X:195
T:St. Stanislaus Reel                                                                               
M:4/4                                                                                               
L:1/8                                                                                               
K:D                                                                                                 
(3ABc |:d2 fd cdec|defd A2 dc|(3BcB gf edcB|AaaA aABc|                                              
d2 fd cdec|defd AAdc|(3BcB gf edcB|1 Agec d3 c :|2 Agec (3dfd Ad ||                                 
f3 f fedc|BggB ggAc|e2 ef edcB|AaaA aaAd|                                                           
f3 g fedc|BggB ggAc|e2 ef edcB|1 Agec (3dfd Ad :|2 Agec d3 c |>|
